X: 912
T: Black Nag
M: 6/8
L: 1/8
Q: 170
K: Dm
P:A
A,| "Dm"D2D "C"E2E | "Dm"F2F "C"GFG| "Dm"AGF "C"EDE| "Dm"D3-D2 :|
P:B
|:D |"Am"ECA, ECA,| ECA, ECA,|"Dm"AFD AFD|AFD AFD|
"Am"ECA, ECA,|ECA, "C"EFG|"Dm(Bb)"AGF "Am(C)"EDE|"Dm"D3-D2 :|

